X:1
T:Mount Zion (Sullivan), 77.77.77
T:Mount Zion (Sullivan), 77.77.77
T:Arthur Seymour Sullivan, 1867
T:Public Domain Courtesy of the Cyber Hymnal™
C:Arthur Seymour Sullivan, 1867
Z:Public Domain
Z:Courtesy of the Cyber Hymnal™
%%score ( 1 2 ) 3
L:1/8
Q:1/4=110
M:4/4
K:D
V:1 treble 
V:2 treble 
V:3 bass 
V:1
 [DF]2 [DG]2 [DA]2 [DB]2 | [Dd]2 [Gc]2 [Fd]4 | [EA]2 [DF]2 [FB]2 [^DB]2 | [EB]2 [DE]2 [CE]4 | %4
 [CE]2 [DF]2 [EG]2 [EG]2 | [EG]3 [FA] ([EG]2 [DF]2) | [Dd]2 [Ec]2 [FB]2 [FA]2 | %7
 [EA]2 [E^G]2 [EA]2 [EA]2 | [FA]2 [^DF]2 [CE]2 [DF]2 | [EG]2 [EG]2 [EG]4 | %10
 [DF]2 [DG]2 [DA]2 [DB]2 | [A,D]2 [B,E]2 D4 |] %12
V:2
 x8 | x8 | x8 | x8 | x8 | x8 | x8 | x8 | x8 | x8 | x8 | x4 D4 |] %12
V:3
 [D,A,]2 [B,,G,]2 [A,,F,]2 [G,,E,]2 | [A,,F,]2 [A,,A,]2 [D,A,]4 | %2
 [C,A,]2 [D,A,]2 [^D,B,]2 [B,,A,]2 | [E,G,]2 [E,^G,]2 [A,,A,]4 | [G,A,]2 [F,A,]2 [E,C]2 [D,B,]2 | %5
 ([C,A,]2 [C,A,]2) ([D,A,]2 [D,A,]2) | [B,,B,]2 [C,^A,]2 [D,B,]2 [B,,D]2 | %7
 [E,C]2 [E,D]2 [A,,C]2 [A,,C]2 | [A,,=C]2 [A,B,]2 [G,B,]2 [F,B,]2 | [E,B,]2 [D,B,]2 [C,A,]4 | %10
 [D,A,]2 [B,,G,]2 [A,,F,]2 [G,,E,]2 | [A,,F,]2 [A,,G,]2 [D,F,]4 |] %12

